X: 3810
T: Black Cat, The
R: jig
M: 6/8
K: Dminor
A|:d2D DEF|ABA E2F|G3 GFE|A,^CE GFE|d2D DEF|ABA E2F|G3 GFE|GFE D2A:|
|:d2e fgf|e^cA A^ce|g3 gfe|gba gfe|d2e f3|ea^g a3|A^ce A^ce|gfe d2A:|

